/* XPM */
static const char *east_wood_planks[] = {
/* columns rows colors chars-per-pixel */
"64 64 18 1 ",
"  c #A5773A",
". c #BA8B45",
"X c #BA8C45",
"o c #B68843",
"O c #916933",
"+ c #B48542",
"@ c #B68844",
"# c #C7984C",
"$ c #B0813E",
"% c #6D4E29",
"& c #4B341D",
"* c #563C21",
"= c #815C2F",
"- c #CFA052",
"; c #AC7E40",
": c #BA8B46",
"> c #5B4124",
", c white",
/* pixels */
" ..Xo   OOOOOO+OOOOOOOOOOOOOO @@@@@@@OOOOOOO@..X.+OOOOOOOOOO    ",
"OOOOo.ooo#X@@@@@.###X@@@.. OOOOOOOO###XXX.@o@@@OOOOOO @X...o+OOO",
"OOOO.o.o.XX@@@+@X###Xo@@XX OOO  OOOX##XXXoo@@@@ O   O .Xo..o@OOO",
"XXX@OOooooo   OOOO XXX      .XXXoo..XX$  $              oo   .XX",
"O .@ $          %%O  ##X.....oOOOO$$@@@  OO   ###o@.      o@@@@O",
"         oo.X &&%%OO     OOO                      OOOOO         ",
"  @o OOOOOO  O&&%%O  OOOO          OOOOOOOOOOOOO         @..    ",
"  @o OOOOOO  O&*%%O  OOO           OOOOOOOOOOOOO         o.o    ",
"OO     +$$$$+  =O  .XX   ooo OOOOOOOO      X..oX.X.X    OOOOOOOO",
"    OOO$$$$$           OO                   $$ OOOOOO   OOO     ",
"****************************************************************",
"#------------#X----------#.     ---------..X--------------#    #",
"@@@..o.@..@ O ;@@..OOO:.....X####.@@...@@      o@@@o@@@@@.##X#Xo",
"....XXXXXXo    o.XXOOOXXXX...####oo.X.X..      ooo@@o....X##XXXo",
"XXXX          o..         ..o...XXX OO@@...XXXX##o.X.    #X#XXXX",
"OO   ..X####X....X..XXXXXX.... OOXX....@..        OOO  ..@ OOOOO",
"X.@     o.X@o OOOOOOOOO +.XOOO @...@  OOOO XX.  ==%&O%   @@oX.XX",
"         O            +$  @...                   =%&%%O         ",
"   OO          OOO             OOOOO OOOO  OO     O%OO       OOO",
"   OOOOO       OOO             OOOOOOOOOO  OO     O%OO       OOO",
"OOOOO...XX$ OO  $$ $   OOOOO     OOOO      +oX.O         OOOOO  ",
"               XXXXXX     OOOOOO               o@@+OOOO   OO    ",
"****************************************************************",
"----#@@o@X#-------------#---#--------ooo.#----------#--@@####X--",
"#####    X#-------------X--#X--------    #----------#--$+XX.XX--",
"XXXXXX#X        XXX.@o@@@o...XXXX.XXXXX     XXX.@o.ooX.XXX@@@XX#",
"XXXOO @o@XXXX@..@@@@    ###ooo OO     X..@.@.o@...X  o.    OOO X",
"       @++     OOOOOO XXX    $    ..X.XX@@OOOOO    .X....@      ",
"o..o    O===O            OO.X.XX                o.##X     .@o@@@",
"++++   O=O%%O        $$                   O        X+OOOOO   $+$",
"       O==&&%%OOO   @@o                   O        OOOOOOOOOO   ",
"OOOO=O  ==&&%O     OOOOO  OOOOOOOOOOO   OOOOOOOOO           OOOO",
"         O%==    OOOOO              OO          OOOOOOO         ",
"$OOOO         X...o$    $OOOOOOOOOOO@.X.o.  $+$+@  $    @ OOO   ",
"%>>**%%%**************>%%>>>>>>>**%%%%%%%%%%%**********>>>***%%%",
"****************************************************************",
"+@#-----X----++$-----------  #-------------        --------#   #",
"XX##X..o...o.o###X..XX....X  @XXXX:X..XXXXX##### ...o..@.X..  XX",
"@$$    OOOO...X@   X.XX######        .XX  XXXXXXXXX.   @..     @",
"..  .o......X         o@$+$@@@@@@@    $$+.       ....ooo@@.o....",
"OOOOOOO XXX.@....    .X.   OOO        OO  X..X.      @oo        ",
"OOOOOOO oXX.o@oo@    ..X   OOO        OO  o..oo      @oo        ",
".        O     OOOOO       @oo@OOOOO                    OOOOOo.o",
"       OO          OOOOO            OOOOOOO   OOOOOOOOOOOO      ",
"OOOOO=     OOOOO       OOOOOO=   @..  OOO$+          OOO       O",
"               OOOOO             $+      ++$+++      $++  OOOOO ",
"****************************************************************",
"****************************>***********************>***********",
"--------##X      ----@@@#-----X#------------##--#    #-#---X####",
"XX.XXXXXX..XX##-#-#XXXX     XXXXXXX  oXXXXXXXXXX#####@oo+OO  ##X",
" .      @@...@@oooo.XXXX.@        #####X.++     X.X.o           ",
"OO@o.o+ OO@@o@o  OOOO..X..$  o@     ooo@.  OO @.$    ####@@@@@OO",
"  +$$.@+       @+              OOOO    oo@@   $+  OO $+@X@  OO  ",
"oo   ..@       ....o           OOOOO   .XXXX      OO    oo  OO@.",
"XX.o    OOOO            OOOO               OOOOO%%%=O=      XXXX",
"                 OOOOOOOO     XX..X  @@@       =%%=O   OOOO     ",
"    OOOOOOOOOOOO                ..oo OOOOOO     OO              ",
"OOOOO    o@@@o@    OOOOOOOOO                  OO    OOOO    OOOO",
"OOOOO    +++++$    OOOOOOOOO                        OOOO    OOOO",
" OOOOOO$         OOOO      OOOOOOOO       $$$$$$OOOOOOO   OOOO  ",
"****************************************************************",
"######.   ######   @@@.o    @#######XXXXo.X..---.   @#########X#",
"###   O $$$$$$oo@@@@.o@o@        X#X#    ...Xooooo..o@o    XXXX#",
" $$$ $+ OOOOOOo@@@oo..OOOOOO          O  OOO .....OOOOOOOO      "
};
