/* XPM */
static const char *north_mossy_stone[] = {
/* columns rows colors chars-per-pixel */
"64 64 21 1 ",
"  c #33322B",
". c #404137",
"X c #3F4036",
"o c #403F3A",
"O c #3F4038",
"+ c #596433",
"@ c #818E4F",
"# c #676D4E",
"$ c #6E6E6D",
"% c #838282",
"& c #5F6060",
"* c #52524F",
"= c #49512F",
"- c #778449",
"; c #65713B",
": c #80807E",
"> c #5D6053",
", c #605E5E",
"< c #807E7D",
"1 c #3E4526",
"2 c white",
/* pixels */
"                      ..X.    X                ..  .          oO",
"+@@#++$$$$$%$$$%$&$* =-;==$%+=:%%*$$$$%%%%$* =$%%%$+++=$$=*$$$#+",
"$>#;=&$$$$&,&%%%%$$* &+==;;++=$$&&$$$$$%$&&* *%$$&=#+==&$$$$$$$*",
"$&$=+$$$&$$,,$%$$$$$ &&*#-+*=&$$&,&&$$$&&*$& $%$$$*+-=,$$&$$$$$&",
"$&&&*&$$$$$>>$$>$>>$ $,,+==$$$$&&&&&&$&&$*$* %$$$,$+=$$$&$$$$>>&",
"$$&&,&&$$$$$$&$$,==& $$>=+$$$$&&&%%&&,&$$*** %$&*$$=$$$$$$<$&$>&",
"&$$$$$>&$$$$$&*&+;=& %$$+$$$$$&&$%$$**$$$$$* *$$&$==+$$$$&&&$$$&",
"&$$$$$**$$&$,>=;=+++ %$$#$*$$$&$$$&$$$$&$$$& *$,$$,$,$$$&*$$$$$&",
"$$$$$***.>$$$++=+.$* $$,$$*$&$$$$&$$$$$$$&*> **$$&$&*$$&$$$>,$&$",
"&$$,****$*$$&++=&$&* *$$&**$$$,&**$>$>$$**** *:$$$**$$$$$&>&*+$$",
">,*****$$&*&&>=***** **&*&,*&$$***&$*=>&**** *>$&**>$,$$,,,*$=+,",
"   ...X                            .      .                     ",
"****;#=.* ***$%:$$$#+$:,+=$%#+$& ***=+=+;+=-#+*&%%%&=##+. %%$$$$",
"%%%$$+;=$ &:%$$$$$$+=+$$+++$,=#$ *%%+===++=;+=*:$$,$>=++1 %$$$$$",
"$$$$$$=;$ $%$$$$$$$+;=$$$=+$$$#$.$%$$=$+=====&&$$$$$$$==1 $$$$$$",
"*>$$$&*=$ <$$&$$&$$$+$$$$*+=$,$& $$$$+$+=++=$%&$$$$$,&=+= $$$>&$",
"$>$$&>&$> *<$$&,$$$$+&$$,$&+$$$& <:$$$$>=;+>$$$&$$$$$>&=+ :$$$,$",
"$$$$$$$** =$$$$$$$$$$&*&$$$*&$$* *%$$$$$>+#%%$$$$*&$>$$*+ %$$$$$",
"$$$,$$:>* =*$*$$$$&>&$***$$$>*** *>$$$>$$=&<$&,$&*>$$$$&* $$$$$>",
"$$&,+$$$& ;=++$$&$$>***$&$$,**>* $$&&$$$$=$$$,$$$*&*$$&$* *$$$>=",
"&$$#=*&*& +;;=$$$$,***<$$$$$*&&* $$$$.,$$>$$$$$&>***$$$$* *$$##+",
"*,$#=;=>* .;=**,$*****:$$**$$$** *&$$**:$$$>*&$>>=***$&** *$,;;=",
"*&*1+;1=* *1==**,+=****,*****,*. .*****$$$******#+.****** **==1=",
"               .                                 .              ",
"* *$%%%&$%<$$$$=;-#+=%* =+==$$$%%%%%<$=+;;#$$* **$%%%%%=+#++;+=,",
"= $%$%$$$$&$$$&>;+==&$* *=*$$$$$$$$$$&&$=+=$$* *&$$$$$$<*=+++=*$",
"* $$$$&$$$$&,$$$=;==$&& &$$$&$$$$$$&$$$$>==+$, $$$$$&$$$$==;=&$&",
"$ $$$$$&>$$$&&&$>=+#$&$ $$$$$,$>*$$$&$$$$=$*$$ :$&$$$$$$$$>+*$$*",
"; *$$&**$$$$$$&&$>=,$$. %$$$$$**>$$$$$$$$$$$$* >$,$$$$&$$$$=$$$*",
"; ****$%%$$&$%*$$$=$$$> %$$$$**$**$>$$$$$$$&$* =##$&$&<$$$$=$$&*",
"+ ***$&<$$$$$$*,$$$$**> *$$$$*$:&***$&,$$$,$$* =;+#$$$%$$>$$$&*=",
"= **$$&$$$$$$$*,$$$$$** ,*,$&*$%$$***,$$$&$$&* ;1=+#&$$$**$$&**=",
"> **$$#>$,*&>*,$$*$&$** *;=>,$$$$$****$$>*$&** =$$=+&$$***&$$$=#",
"* *$$>#+&**>>,&$&**$*** 1-+=&,>$$>&****&**&,** >$&==>$&**&&>$*+=",
"* **>=1+=************** *=+=1=*>*****$******** ****==*,>****===.",
"     .                                          o           O   ",
"::%$$**%%%,* 1+-#+$$+;@@+==$$:%%&*%>* *$-#+==%%$$<%:%%&** *$$<:%",
"$$$$$&$$$&*> =;+==$$$=;;+=$$$$$,>$<$* $$#=;+==$$$$$$$$$$* &$$$$$",
"$$$$&$$$$*&& =+;=$$>$=++=$$$$$$$&$$$* $$#++=>=$$$$,$$$$$$ $$$&$$",
"$&,$$$$&$$$* $=+=$$$$$+=$$$%*$&$$*>** %$+;=>%&$$,$$$,$$&$ *$$$$*",
"*&$$$$$$>$** $$=$$,$$$+$$$$>*,$$&$$+= %$,+=:<$$$$>$$$$$$$ *+$$**",
"$$&$$$;;$$$* $$&$$$&&$#$$$&*$$*$$$#;= &$$=&$&$$$$$**$$$&& ;=$,*$",
"$**$$&;=#**& ,$%$$$&&$$&$&*>$$$$$*+=+ >&$+$$$&$$$,&**&$$* +;>*&$",
"$&*&$>+;#1** *$$$$$,$$$,**$$&$$&*$$;= *$$$$$&&$$,$$$*,$** ++==&$",
"$******-++** *$$*$$$$****&$$$&$**$+;; *&$*$$$>>$$$$$$*>** +;;+,&",
"******;+1++* ************$$*>&*****1= *****$,*>>$$*&$**>* *1+=1*",
"                                  X                             ",
" *&#+#;+==$%%$$$$%%$* *$$%$*&%%%>+==$+==>$$>=1 *;-;+=%:%$$$%$$+=",
" $$+=+;+=%$$$$$:$$,** $%$$$$$$:$$+++==+$$$$=#1 $-++=$$:$$$$&$$$=",
" <$$+;+=$$$$$$$<$$*$> #%$$$$$$$$$$#=++=&$$$$+1 :;;=&$$$$$$$*$$$+",
"X%$$<+=$$$$$$$$$$>*$$ ;$$$$$$$$$&$+$>$$$&$$$=* $+*+$$$$=$&*$$&$=",
" %$$$$+$$$$$$$&***$$> +#$$&$$$$$$>&$$$;+$$$$+. ,>$=$$$+;$$$$$$,=",
" >$*$$+$$$$$$$***&$$$ =+$#&$$$*$$$$$$#-+$$$$,* &$$$$$$>=+$$$>:%>",
" **$$$$$+*$$$**$$$$$. &+;+$$$**$$$$$$$=;>&*$$* $$$>*$$$&*$$*$$$>",
" *,$&$$##=,$&*$$$$,$& $#+=$$***$$$&>$$>=$$$>** $%&*$$*$$$#;=&&&*",
" *&$$>=#+=**,$$*&$$** &+=&$***$,$$,&$$$*$$&*** ***&$$=+$>#==**$*",
" **>>*==1+=*$&***$>** *.,,***$$**&&,*&$$>**>** ***$&*=+=>+1==***",
"                                                                ",
"$$%%$&$$$$1 +#+=*<%%&*$$$$$&%$$;+= *$$==+$$$$$%%&$%$**.** #;=;+$",
"+#$$,$$$$&1 ;=*=$$$$&$$&$$$$$&&$+= $$$+==#+$$$$*&$$%&&$$. *-;=$$",
"&=$$$$$&$$* +1$&$&&$$$$$>**$$*&$&+ %$&*$=+=+&>$$$$$$&$$&* &#=&$$",
"$,*&$&$$&$& =&$$**$$$,+>&***&**$$= $$$$&>=,+$$$$&$$;+$$** #+=&$&",
">,**$$$>*,* *&$&*&$&*+#+=$*>***$&. *,$$*&$$>&$$>*$+-=*,** *,&$*>",
"*****...*o. .**..*..*.  **..o.**.. .*********o.*.*. *...   ...*."
};
