/* XPM */
static const char *south_terracotta[] = {
/* columns rows colors chars-per-pixel */
"64 64 20 1 ",
"  c #533825",
". c #64452F",
"X c #5C402C",
"o c #5A402D",
"O c #704E36",
"+ c #4A2C1D",
"@ c #664732",
"# c #E17C3A",
"$ c #D2692F",
"% c #B34D27",
"& c #974328",
"* c #E4803E",
"= c #C35927",
"- c #863D28",
"; c #713929",
": c #66331E",
"> c #684630",
", c #E58645",
"< c #5E422E",
"1 c white",
/* pixels */
" . X  o.X             XOX    +  o           XX+  + +  X@    Xo  ",
"#$%&%$#**#=%=$$##$X =###$$$%$##&&%%##$ %%==%$$$%@ %$####$##%%%=#",
"$%&&#$$#%===$===$%++#$#$$=&&===$##%%$=+=%&&%&%%%++##$%===$$=-%$$",
"%%=+%$$%%%%==$=%=%  #%%%=%-%%%%$$%%%== %&&&;;;&&; #$$%$$==%%%%%%",
"%== :&&%==%%==%%=%  ===%%%%%%&%==%%%%=+%&%&--;-&& #$$====%%=%%%%",
"%%%:%$$$=%%==%%==%> =%%%===%%%=%=$=%%&+&&&;&-;&%%+$$$=%&&%====%%",
"%&%%%$$$$%===%==%=  %%%%&=$%%==%===%%; &&;;-&&&&&+=$=&&&%%=%=$=%",
"%%=%&&%=$$==%&%&&%+ %%=&%===%;-&=%===+ -&&-&&%%&%+&$%%&%%&&&==%=",
"%%&%%-:&====%&&&%&++&%&%%&%%:++ %%%%&  :-&&&-;-&&++&%&%&-&%%%%-%",
"+++++  +++++++++++>O ++ +++++   +++++ O +++++ + +  +++ + ++ + ++",
" . .@X oXX>X +   .>XXX  +  >O>OX    XOX>X     XO>>>>  + X XXX   ",
"$=##$% @o=$$=%%$&&===%$$$%  &#$,,,,#$$$$#,&&&%#*#$$$$ &$#$=$=%%$",
"$$=%=$% .$====&%&&&&%%%%%-+ ##,$$$$$#$===-%%###$=%===+$$=%$%%%%=",
"==%%%$$+ %===&&&&&&%&%&&--- #$$$$=$*$$%%$%&$$$=%%%%==+$==%=%%%==",
"%==%$#=++&%%---&&&%&&&&%:-%+#$$$%===$=&$$%=$$===%%%%%+==%&&%%%=%",
"%====$$ @%%&&&&-&%&&&&&&&&% #$$%%%=%%$==$===%=%%%%%%: =%%%==&==%",
"%=%=$=%+ %%&&&;;%%--&&&&%&& $=&&%$=%%$$$$$=%%===%%%%+ %%&==%%%%%",
"=&&==%%+X=%%&&&&&&;;&&&%&&- #$=%=$$=$===%====&=$==&;+ %%%%&=%%%%",
"&&%&-%&++&=%&%&&&&&;;;&&&&;+&$===%&-$=---====&%=%=&+  &%=%%%%%%&",
"++ ++    ++ +++++++ +++++++  +++++++++++ +++++++++  > +++++++++ ",
"@   +XXXO@.  X X   O>X  + >>>      +  X@ XXXX    >>  >  . +    @",
" %$$=$$$$=%o %##$%$#$=$$$=#####& @>%#$#$X %$$$$$$$%=$$$%--$$$=  ",
"$$===$==%%%+ #$=$$$%==%=$%=##$#=+ =$$=$$++$$$=%$=&&&&%&&==%&%%&+",
"#=%====%%&%+ #$==$&&%=%=%===%$== .#=%===+ =$$=%%%&&&;;&%&&&&%%& ",
"#$%%%===%&% .#$===%&%%=%%=%&%===  #=%%%= +==%%%%&%-;;-&&&&-&&&&+",
"$$=%&&%$$%%+ $===%%====$=%%%====+ $%%&&%  =%%%%&&&;;;&&&&&&%&-& ",
"=%==%&&%=%%+ #$==%%==%$$=%=%%%==++%=%&%%  =%&%%%%-;---;-&&%%&&&+",
"=%%=%&%%%&;+ &&$==$%===$==%&-===+ &%%&%=+ =%%&%%%&&&-;;;-&&&%-&+",
";::+::::: + X++::::: ::::+:::::+ @::::::  ::;::+:+:::+ :::::+: .",
" .X +  >o@Xo . +X ++  +  Xo    X @@X .    X   >  ++ O  @    + > ",
"$###%$$$%  $,#$#,,#$$$X &$=%%==&=$$%%$$$$%:O ##=$$$##$##& ###=%$",
"$==$%=%=$ ##$$#==$$%==+@==%%&%&&&&%&&%&=%%%  $$%==$$=%$-%%$==&%=",
"==%==%%==+#$$%%%=$==$$ +%%%;&&&&&%%&&&-&%&&+ $==%=====;&&%==%&%=",
"==&%==%=%+=%$$%=$&&$$=%+&&;;;-&&%&&%&-&&&&&+ ====$=%%%=%%=%%%%=%",
"%%&%$=&-+ %$$$==%%&==%%+&;;;;-&&&&%&%%&&&&& X&%=$=%%%$$====%%%%%",
"&&%==%%;+ $$$=$$%&%===&+%&;;-&&&&&&&%%%&--&+ -&#$=%%=$=%=%%=%%&%",
"%&%&=%%;+ $$=%$%===%%%&+%&&&;-&%&-;&%%&--&%  #=%$=&==%%%==%&%%%%",
"%%%&&-&:++&$=%-%%%%&%%-+&%&&&--&;&--&-;-&&&++$=-;;;%%%%%%%%&&%%%",
"+ ++++++X +++++++++++++  ++++ ++++ ++ ++++  .++++  +++++++++++++",
" ..     OO +     o   +  o@     o@ @@@ +++XO>     o o.++    +   >",
"%=$$=%&=$$=&X >$#$=###$$$&#### > >###$$$#-&&&###$$%X &$###$$$$$%",
"%%%&;-%%&%%%+.$#=$$$#%%%=###$$%  ##$%=$#$%-&###=%%=+.$$$=%==%%-&",
"%%%;&-&%&-%%+ #$==$%=%%=$$$%%==+.#$$%%$$==&-==$=%%=  #$$%%=%&&-&",
"-%;;;&&&&-%% +$$====%======%%%=+ #=$%&%===%%==%=%==+ #$$&&%-&-&&",
"&;;---%%&&&&  $=%%===$==%%%====  #%%=%%&====%%&==%%++$=%&&--&&&%",
"&&;--&&&&-&&+.$=%==%%$$$$==%===++$=%&&======%&==%%%++%$%%&;;&%&&",
"&&&;&&&&;;&&+ $$=$=&&==$$=%&===+ &=%&%===%%=%%%%=%-+ &$%=%-&&&%&",
"-&&%&-;;;&&&+ &$%=&-&%%%==&;-=&+++&=%%%&--%%%%;%%%+   $%%%%&&&&;",
"  .        @@@.@   X@  X@       @     >    .@@    @>       +++  ",
"#$$,,$&-***,,#%  &=$$$%$$%  %$=%$######%=$$%  @%$###$&  %#$$$$=$",
"$====$$%%=$=$$=+ ===%&&&%%+ #$$===$$=%=%%%=%:+ =$$=%==+ $$#=$%=$",
"========%-$$===  =%&&%&&%& +$%%%%==%=%=&&%=$=&+%%%%=%% .#=$$%%%=",
"%=%&=%==%%==$$%> &&%&&&&&;+ $=%&%===%&%%%%=$=% %%%%%%=  #=%$$=%%",
"%=&&==%%==%%$$$+ %%&&;;-&&  =%&%%%==%%&&%%%%%;+%%%&%=%+.$$=%%%%=",
"=&&&&%%==%%%=$%+ %&&-;;-&&  %%&%%%%%$%%%%%%%&-+%%=%%%%  -%%%%%&$",
"=&%%&&===&%====+ %&&&;;-&%  -=%%%%&%=%%%%%%%%- %%%%%%&+ -&-%%%%%",
"%%%%&&%%&;%%%&;++%%&&;;&&%+ +%%&%%&&&%%&&&-%&;+&%%%-&%+ ++ &%%%%",
"++++++++  +++++ @ +++ ++++ O+++ +++++ ++++++++ +++++ + @ +++++++",
" O  + ...      Oo@<@   + @.@   X   X o@> +  @@   XX +o  oX@X  oX",
"$&>&$##$  &==%$$%%   ##$###$$##%-&$##&  O%$=$$=&%===&&OO%#$$$% $",
"$&+##===&&=%%%%%&%;+ ###$%$$%%%##%%$$$+>==%%%%&&%&%&&%+ #$=%=%=$",
"=- #$$%%%=%%%%%-&%% X#$$=%$=%%$$$$%=$=+O=%&&-&&&&%;-%% @$==%%$==",
"&&o%=%%%%&%&&&-&&&&+ -$===%%%%-%===%%-  &%&-;;&%&-&&%&+ %==%%%--",
"+  ++  ++++++++++++  ++++++ ++ ++++++ X  + +  ++++++++  ++++++++"
};
