/* XPM */
static const char *west_deep_slate[] = {
/* columns rows colors chars-per-pixel */
"64 64 21 1 ",
"  c #1D2126",
". c #57606D",
"X c #4D5867",
"o c #3A4453",
"O c #303946",
"+ c #272D36",
"@ c #1A1D22",
"# c #424C5B",
"$ c #5B6472",
"% c #586171",
"& c #171A1D",
"* c #88A1BF",
"= c #738EAE",
"- c #536C8A",
"; c #93ABC7",
": c #637D9D",
"> c #3A4D65",
", c #586170",
"< c #6D829D",
"1 c #839CBB",
"2 c white",
/* pixels */
" .XXoOXXXXX+XoO.XXooXXO@+O##$XXOO.%#+++%XX @+o+#.X+#..$$XXO#X.+ ",
" @ooOOOOoooOO#XooooOOOo XXOOOo++X%#.XX#O##O@..O.#OO++#ooOOX#OOO@",
"   +OOo++OOOOXXoooOoOO @XoOOoo++X++Xoo#O+++ Xo#XOOOXoooOOO#+OOO ",
" &X*o=+O+OoX##oOooOoOo  #OOOOOO.+OOOOoOO+O  Xo.XOOO#XOOoOO+OoOO ",
"&%-+++O+++Oooooo+oOooOO@ @OOo+X#X+OOO;OOO++@X#OOOoX..#+oOoooOo+@",
"@#OooO+O+OX##  OOoOo++O@+ +OXo#oo++oXX:++OO ##OOoX#X#ooOOO>o+ X@",
"@#O+O-=+Ooo  +OOOo+ ++O@X#+ #o++OOOOO>O+OOO .+.X+##OOOO=+O++ XO@",
"@OoOOo+ #o++++OOoo +O++@##O oOOOO+OOO++O+O  +.X.++#OOO-OOOOO.#+@",
"@o+++++  +OOO+O    +OO @XO+O@ o+OOO@+O+oO++ .X+oo+++oO++oO+ #OO@",
"@ o@   + @OO+OO     +  & O++   O+O   ++O   @Oo O+++@+  o+O + O+ ",
"  @ @   @@ @@@@@@@&@@@@  @ &   @@ @  @  @@@@   @    @  &   @@@@ ",
".#OoO,,#XXO +...$oOXoo#.OO#,X++$.OooOoo%.#XXX#+Oo+@%XX.,OOO+$.X.",
"OoOO#.$OO#+@.XoooOOOOoooOOOOX+ .oOOOOooX++O#O++OO+@%XooOOoO+%XXO",
"OOX%.X#OO +&.#ooOOo oooOoooOo+ ++O+OOO#O++OoooO+++@.ooOO#oO+##oO",
"O+..O+O+ OO&XooOOOO+#ooo>-+O+O@,X# ++O+O+O+O++  o+ OoooO#XO+#oOO",
"OOXXOOO Oo+@+oOooO+O##OoOOooO+ .o#X  O++O+OO+ :>o  ++o#OXXX+#oOO",
"#Oo++++o#O+ o  ooo+O.oOOoOooOo #XOO#X ++Oo++<o:X+O@.o +oOO#X+OoX",
"O+O++O+#+o++OO+XoOo++Oooooooo++XoOOOO+ oo++O>O++OO@XoO ooooO++oo",
"++OOOOOOOO  XOO ooooo+#oOOOo   o#OoO+ O ++>:++OOO+ ##+O oOOO+Oo+",
"+ooOOoOO+ +&Xo++ #Oooo++OoOO +&#ooo+ +OO +O+OO++++@.oOO+ oOo+OOO",
"O++ o+   O &++OO  O++++++O+ + & OO+  ++O+ OO+ +O+ &+o+O+  O+  OO",
"  &&@@&@ &&@@@@  &&&&@@&&&&&&& & &@  &@@&&&&@@@&&@@&@& @@ &&&&@ ",
" @XX$XX+#XXOooO&,.,%,.+.%%X#X..XO#o& ,%#ooo.+o#o.#%,%.O&+o##O#o@",
" .,oooO.XOOoO+o  %OOoo.XoOOooO++++O  $oXoOoo+OooOoo+o#O oXXOooO ",
"@X#ooOOX.OOoo+O@ +ooOo.#O#oooo++++O @###OO#+OOOo=o+OOo+ X=+ +o+ ",
" %ooOOo#OoOOOOO@##+o<oooOO#OOOo++OO  XOoo##+oOOoO+O+OOO+,o+o++O ",
"  #OoX#++OoO;OO #O %OoOoX+OOOO +++O+ +oo+++OOXXOOOOOo+O +OOOoo  ",
"  +#o##+oO+o%++ XO++oo###+OOOO+++OO+ +#++OOO#X#O+OoOO+# +XOO+o+ ",
"@,oO #OOO#.XoOO@#OO+#oo++OOO  OOO+++&X# OOO##Oo=++OOOo#&.#OOO+O@",
"@XoO+ OO##oOOo+@oooO+@#OOOOO ++O++O  #oo Ooo+O>+O+OOOo+@.XO+OO+@",
"@oO++@Ooo++OO+ &+oOO+ oO++++++O+++  &#OO  oO++OO+O+  ++@ooO++  @",
"  @ &@@@@  @@@@ @@  @@@@ @  @@@ @@@  @@   @  @   @@@ @@ @ @ @ @ ",
",,+ ...X+@+%$%%%X+.XXX+X##   +$%% +%%$#.# +OXX   $$%,%%XX+ X.$%$",
"oOOX#OOoo@X.XooOoO##OOX.XX# @X.oooo$oooooXX#oO+ %,.oXOOOOo X#ooo",
"oOo++oOO+@XXoooOooX#OOX#+O#O@%#ooX%OooOOoo#XO++ %#oooOOOoO .ooOo",
"Oo##+++OO@+oooOOoX.OOO+O+++O@XoOo,,.+OOXOoX++O+@Xoo#oOoo  %o%OOO",
"oXOo# -O+@.++oOoX#oOoXOOOO+O@#o##XXoo+o1->++O+O@ XooOooo %oOOOOO",
"Xoo++oOO @Xoo  #OoOOXX++oo+   oXoo.++OO%O+OOOO+@  oOOO+ .XO>oOOo",
"ooOO>oOo @XOOO+#OoOX++OoOO +@+++ o++OX>+O+OOOO  o++ Ooo.#ooO->OO",
"OOO>=>Oo+@oo+OO ooO +Oo+OO o@%.oO +O:>O++++O ++ %##+ oOoooOO=>oO",
"O o+O>o++&XOO   #o+OOo+o &o @.OOoO #OOOo +O+OO+@.oOoO#Oo++oO+OOo",
"OO+O+O++ &+OO+O+  OOO+O++O+ @oOO+Oo OO++O+ +++ &+oO++ oo+OO+++OO",
"@@  @  &@  @&  @  @@@@ @  &&  @ &@&  @&&    @@@  @@ @ & @@ @@&&@",
"  %.$$$.,X#.XXXX#   %XX,o%..X#+#XX#o   ,,X.%X+.X#X+ +..#+o%#%#  ",
" @%...OooooOO+>ooO&OXoooo#OOOoO##OOo+ ..oooooX#OOOO+O.....ooOo#@",
"@..ooOOOooOOO+OOO+@%oooooOooO+#oOO+OO ,#oooo--+OoOOoXoO##oOooO+@",
"@#O#OOOoOOOXo.+++ @XX##XOOO+o OOOOo+O X#ooOX-O++OooX#ooOo>OoO+O@",
"   oOO#OOoX#..++ O@XXO##OOOOo OOoOoOO@O#ooO>O++OOO..oooOoO<O+ o@",
"@.XO o#OoXXOo++##O@XOOOoOoOO X-o++O+O@  #OX+OOOOOO#ooooooO+OX#o@",
"@.OOo #XX.oO>++##+@# +oOOoO XX>++OO++ .X  OOOOOO++#oooooOOO X#O@",
" #oOOO #+++OOooOO+ XXo +OO X%+OOO+Oo  XoOO OoOOOO+Ooo++ oo oooO@",
"@#O+OO@o++OOOOo+++@.oO+@O XX+OOoOOoO+ X#OO+ OOOoO+O  O+OoO oO++ ",
" @OOO    OO++   + @OOo+O  O+  o+ oO++&O#OO++  OOoO OOOo++OOo ++ ",
"@ @@   @ @  @  @&&  @  &  @@  @@@@@@@ @  @ @&@@@@  @@@ @  @@@@@ ",
"%.%$.oXXXO  OXX..X..++.XX.## +.X%o ,%XX#+o.,%#..#  +O.%XXOo%,%%%",
"oooo#X%###o&.#oooX+++X.oo#oO .Xooo Xoooo#OOOOOXXoo OXOO#oo.XOOoo",
"oXOX#OOooOo&$ooooOOOoXoo+++  .ooo+ OoOoooOOooXOO+O ,XOoo##+ooOoo",
"o;O#OOOOO   XoOOOOOOXoO-O+X# XooO.X+ooOOOOooo:-o+  + Oooooo+##Oo",
"X>OOOOOO+oO +ooOOOO#OO>-O+#o ooo X#+OoOOOO#oo-++++ .X ooO##OOo<O",
"oO++ooO +oO .   OOX#oO> OoOO +++#OOo ++oOOXXO>O+X# .oX oo#oOOOOO",
"o#O+X#oOOoo@XOo #XXo#O+OOoOo@+#OooOO   X#XXXOO+ o+@XooX #OoOooOO",
"O+O#o  XOO+@#oO  oooOOO+oOOO XXooOOOX#+%#oOOoO OOo ##o+    ooo++",
"O+o#+ #+O+O&X#++ XO+OO Oo#OO&X#ooooo#oO  o+OOOoOo+&X#++Ooo+Ooo++",
"  @ @@ @@@@ @  @  @@@@ @ @@@ @     @ @ @@@@  @@@@@ @   @  @@ @ @"
};
